imgs/spaceship.svg

<svg width="57" height="57" viewBox="0 0 57 57" fill="none" xmlns="http://www.w3.org/2000/svg">
<path d="M25.9538 7.47783C18.5776 5.96706 10.7158 9.1846 5.13284 16.2929C4.94883 16.527 4.857 16.8204 4.87472 17.1177C4.89244 17.4149 5.01849 17.6954 5.22902 17.9059L11.0213 23.6995C14.9045 17.3787 19.9754 11.87 25.9538 7.47783Z" fill="#FF9579"/>
<path d="M32.2744 44.9529L38.0984 50.7756C38.309 50.9862 38.5894 51.1122 38.8866 51.1299C39.1839 51.1477 39.4773 51.0558 39.7114 50.8718C46.8635 45.2524 50.0835 37.3321 48.5021 29.917C44.1046 35.921 38.5958 41.0252 32.2744 44.9529Z" fill="#FF9579"/>
<path d="M55.6466 0.367132C55.528 0.242884 55.3839 0.145876 55.2241 0.0828173C55.0644 0.0197589 54.8928 -0.00784441 54.7214 0.00191681C21.3139 1.74643 9.93138 30.9296 9.81939 31.2242C9.73683 31.4433 9.71922 31.6816 9.76866 31.9104C9.81811 32.1393 9.93252 32.3491 10.0982 32.5146L23.4894 45.9058C23.7176 46.1341 24.0272 46.2624 24.3501 46.2625C24.4991 46.263 24.6469 46.2357 24.7859 46.1822C25.0805 46.0689 54.1115 34.544 56.0021 1.28869C56.0105 1.11877 55.9832 0.94897 55.922 0.79024C55.8608 0.631509 55.7669 0.487375 55.6466 0.367132ZM31.6544 29.2191C30.6913 29.2191 29.7498 28.9335 28.949 28.3985C28.1482 27.8634 27.5241 27.1029 27.1555 26.2131C26.787 25.3233 26.6905 24.3442 26.8784 23.3996C27.0663 22.455 27.5301 21.5873 28.2111 20.9063C28.8921 20.2253 29.7598 19.7615 30.7044 19.5736C31.649 19.3857 32.6281 19.4822 33.5179 19.8507C34.4077 20.2193 35.1682 20.8434 35.7033 21.6442C36.2383 22.445 36.5239 23.3865 36.5239 24.3496C36.5239 25.6411 36.0109 26.8797 35.0977 27.7929C34.1844 28.7061 32.9459 29.2191 31.6544 29.2191Z" fill="#F47C5C"/>
<path d="M13.6898 42.3145C12.3188 40.9465 10.4612 40.1782 8.52442 40.1782C6.58768 40.1782 4.73003 40.9465 3.35906 42.3145C0.733166 44.9392 0.0721267 53.7104 0.00273579 54.7026C-0.00845167 54.8692 0.0147509 55.0363 0.070901 55.1936C0.127051 55.3508 0.214948 55.4948 0.329127 55.6167C0.443307 55.7385 0.581327 55.8355 0.734607 55.9017C0.887887 55.968 1.05315 56.0019 1.22012 56.0016H1.30168C2.29385 55.9334 11.0651 55.2711 13.6898 52.6477C15.0585 51.2766 15.8273 49.4184 15.8273 47.4811C15.8273 45.5438 15.0585 43.6856 13.6898 42.3145Z" fill="#FFB6A3"/>
</svg>

<svg width="57" height="57" fill="none" xmlns="http://www.w3.org/2000/svg"><path d="M25.954 7.478c-7.376-1.51-15.238 1.707-20.821 8.815a1.217 1.217 0 00.096 1.613l5.792 5.794A57.436 57.436 0 0125.954 7.477zm6.32 37.475l5.824 5.823a1.217 1.217 0 001.613.096c7.153-5.62 10.373-13.54 8.791-20.955a58.164 58.164 0 01-16.228 15.036z" fill="#FF9579"/><path d="M55.647.367a1.186 1.186 0 00-.926-.365C21.314 1.746 9.931 30.93 9.82 31.224a1.217 1.217 0 00.28 1.29l13.39 13.392a1.217 1.217 0 001.297.276C25.08 46.07 54.11 34.544 56.002 1.29a1.218 1.218 0 00-.355-.922zM31.654 29.22a4.87 4.87 0 110-9.74 4.87 4.87 0 010 9.74z" fill="#F47C5C"/><path d="M13.69 42.315a7.313 7.313 0 00-10.33 0C.732 44.939.071 53.71.002 54.703a1.218 1.218 0 001.217 1.299h.082c.992-.069 9.763-.73 12.388-3.354a7.313 7.313 0 000-10.334z" fill="#FFB6A3"/></svg>
